X:1073
T:Green Gowned Lass, The
R:reel
D:Matt Molloy
D:Martin Hayes
Z:id:hn-reel-1073
M:C|
L:1/8
K:G
d2BG DGBG | AGBd BE~E2 | d2BG DGBG | (3Bcd ea agge |
d2BG DGBG | AGBG AGEG | d2BG DGBG | (3Bcd ea aggd ||
g2bg ageg | ~a3b ageg | g2bg agge | dega bggd |
g2bg ageg | ~a3b ageg | g2be aege | dega bgge ||
P:variations
d2BG AGBG | AGBd BEE2 | d2BG ABGB | dega bage |
d2BG AGBG | AGBd BEE2 | d2BG ABGB | dega bggf ||
gabg ageg | a3a agab | gabg abge | dega bggf |
g2bg ageg | a3a agab | gabg abge | dega bage ||

